X: 1393
T: The Grey Beard
M:C|
L:1/8
N:"collected by Cronin"
B:O'Neill's 1393
Z:"Transcribed by Bob Safranek, rjs@gsp.org"
K:G
((3DEF) | AcBA GFGA | defa gedB | GABA GBcB | ABAG FDEF |
          GABA GFGB | defa gfgf | ecAc dBAG | FDEF G2 ||
B2      | d3 e dcBc | defa gedB | GBde dcBc | AFDF ABcA |
          dcde dcBc | defa g3 f | ecAc dBGB | cAFA G2 |]


